src/assets/svg/instagram.svg

<svg width="43" height="43" viewBox="0 0 43 43" fill="none" xmlns="http://www.w3.org/2000/svg">
<rect x="2.66667" y="2.66797" width="37.3333" height="37.3333" rx="8" fill="url(#paint0_radial_187_40952)"/>
<rect x="2.66667" y="2.66797" width="37.3333" height="37.3333" rx="8" fill="url(#paint1_radial_187_40952)"/>
<rect x="2.66667" y="2.66797" width="37.3333" height="37.3333" rx="8" fill="url(#paint2_radial_187_40952)"/>
<path d="M30.6667 14C30.6667 15.1046 29.7712 16 28.6667 16C27.5621 16 26.6667 15.1046 26.6667 14C26.6667 12.8954 27.5621 12 28.6667 12C29.7712 12 30.6667 12.8954 30.6667 14Z" fill="white"/>
<path fill-rule="evenodd" clip-rule="evenodd" d="M21.3333 28C25.0152 28 28 25.0152 28 21.3333C28 17.6514 25.0152 14.6667 21.3333 14.6667C17.6514 14.6667 14.6667 17.6514 14.6667 21.3333C14.6667 25.0152 17.6514 28 21.3333 28ZM21.3333 25.3333C23.5425 25.3333 25.3333 23.5425 25.3333 21.3333C25.3333 19.1242 23.5425 17.3333 21.3333 17.3333C19.1242 17.3333 17.3333 19.1242 17.3333 21.3333C17.3333 23.5425 19.1242 25.3333 21.3333 25.3333Z" fill="white"/>
<path fill-rule="evenodd" clip-rule="evenodd" d="M8 20.8C8 16.3196 8 14.0794 8.87195 12.3681C9.63893 10.8628 10.8628 9.63893 12.3681 8.87195C14.0794 8 16.3196 8 20.8 8H21.8667C26.3471 8 28.5873 8 30.2986 8.87195C31.8039 9.63893 33.0277 10.8628 33.7947 12.3681C34.6667 14.0794 34.6667 16.3196 34.6667 20.8V21.8667C34.6667 26.3471 34.6667 28.5873 33.7947 30.2986C33.0277 31.8039 31.8039 33.0277 30.2986 33.7947C28.5873 34.6667 26.3471 34.6667 21.8667 34.6667H20.8C16.3196 34.6667 14.0794 34.6667 12.3681 33.7947C10.8628 33.0277 9.63893 31.8039 8.87195 30.2986C8 28.5873 8 26.3471 8 21.8667V20.8ZM20.8 10.6667H21.8667C24.1509 10.6667 25.7037 10.6687 26.9039 10.7668C28.073 10.8623 28.6709 11.0355 29.0879 11.248C30.0915 11.7593 30.9074 12.5752 31.4187 13.5787C31.6312 13.9958 31.8043 14.5937 31.8999 15.7628C31.9979 16.963 32 18.5158 32 20.8V21.8667C32 24.1509 31.9979 25.7037 31.8999 26.9039C31.8043 28.073 31.6312 28.6709 31.4187 29.0879C30.9074 30.0915 30.0915 30.9074 29.0879 31.4187C28.6709 31.6312 28.073 31.8043 26.9039 31.8999C25.7037 31.9979 24.1509 32 21.8667 32H20.8C18.5158 32 16.963 31.9979 15.7628 31.8999C14.5937 31.8043 13.9958 31.6312 13.5787 31.4187C12.5752 30.9074 11.7593 30.0915 11.248 29.0879C11.0355 28.6709 10.8623 28.073 10.7668 26.9039C10.6687 25.7037 10.6667 24.1509 10.6667 21.8667V20.8C10.6667 18.5158 10.6687 16.963 10.7668 15.7628C10.8623 14.5937 11.0355 13.9958 11.248 13.5787C11.7593 12.5752 12.5752 11.7593 13.5787 11.248C13.9958 11.0355 14.5937 10.8623 15.7628 10.7668C16.963 10.6687 18.5158 10.6667 20.8 10.6667Z" fill="white"/>
<defs>
<radialGradient id="paint0_radial_187_40952" cx="0" cy="0" r="1" gradientUnits="userSpaceOnUse" gradientTransform="translate(16 30.668) rotate(-55.3758) scale(34.0261)">
<stop stop-color="#B13589"/>
<stop offset="0.79309" stop-color="#C62F94"/>
<stop offset="1" stop-color="#8A3AC8"/>
</radialGradient>
<radialGradient id="paint1_radial_187_40952" cx="0" cy="0" r="1" gradientUnits="userSpaceOnUse" gradientTransform="translate(14.6667 41.3346) rotate(-65.1363) scale(30.1257)">
<stop stop-color="#E0E8B7"/>
<stop offset="0.444662" stop-color="#FB8A2E"/>
<stop offset="0.71474" stop-color="#E2425C"/>
<stop offset="1" stop-color="#E2425C" stop-opacity="0"/>
</radialGradient>
<radialGradient id="paint2_radial_187_40952" cx="0" cy="0" r="1" gradientUnits="userSpaceOnUse" gradientTransform="translate(0.666674 4.0013) rotate(-8.1301) scale(51.8545 11.0911)">
<stop offset="0.156701" stop-color="#406ADC"/>
<stop offset="0.467799" stop-color="#6A45BE"/>
<stop offset="1" stop-color="#6A45BE" stop-opacity="0"/>
</radialGradient>
</defs>
</svg>

<svg xmlns="http://www.w3.org/2000/svg" width="43" height="43" fill="none" viewBox="0 0 43 43"><rect width="37.333" height="37.333" x="2.667" y="2.668" fill="url(#a)" rx="8"/><rect width="37.333" height="37.333" x="2.667" y="2.668" fill="url(#b)" rx="8"/><rect width="37.333" height="37.333" x="2.667" y="2.668" fill="url(#c)" rx="8"/><path fill="#fff" d="M30.667 14a2 2 0 1 1-4 0 2 2 0 0 1 4 0"/><path fill="#fff" fill-rule="evenodd" d="M21.333 28a6.667 6.667 0 1 0 0-13.333 6.667 6.667 0 0 0 0 13.333m0-2.667a4 4 0 1 0 0-8 4 4 0 0 0 0 8" clip-rule="evenodd"/><path fill="#fff" fill-rule="evenodd" d="M8 20.8c0-4.48 0-6.72.872-8.432a8 8 0 0 1 3.496-3.496C14.08 8 16.32 8 20.8 8h1.067c4.48 0 6.72 0 8.432.872a8 8 0 0 1 3.496 3.496c.872 1.711.872 3.952.872 8.432v1.067c0 4.48 0 6.72-.872 8.432a8 8 0 0 1-3.496 3.496c-1.712.872-3.952.872-8.432.872H20.8c-4.48 0-6.72 0-8.432-.872a8 8 0 0 1-3.496-3.496C8 28.587 8 26.347 8 21.867zm12.8-10.133h1.067c2.284 0 3.837.002 5.037.1 1.169.095 1.767.269 2.184.481a5.33 5.33 0 0 1 2.33 2.33c.213.418.386 1.016.482 2.185.098 1.2.1 2.753.1 5.037v1.067c0 2.284-.002 3.837-.1 5.037-.096 1.169-.269 1.767-.481 2.184a5.33 5.33 0 0 1-2.331 2.33c-.417.213-1.015.386-2.184.482-1.2.098-2.753.1-5.037.1H20.8c-2.284 0-3.837-.002-5.037-.1-1.17-.096-1.767-.269-2.184-.481a5.33 5.33 0 0 1-2.331-2.331c-.212-.417-.386-1.015-.481-2.184-.098-1.2-.1-2.753-.1-5.037V20.8c0-2.284.002-3.837.1-5.037.095-1.17.269-1.767.481-2.184a5.33 5.33 0 0 1 2.33-2.331c.418-.212 1.016-.386 2.185-.481 1.2-.098 2.753-.1 5.037-.1" clip-rule="evenodd"/><defs><radialGradient id="a" cx="0" cy="0" r="1" gradientTransform="rotate(-55.376 37.222 .088)scale(34.0261)" gradientUnits="userSpaceOnUse"><stop stop-color="#b13589"/><stop offset=".793" stop-color="#c62f94"/><stop offset="1" stop-color="#8a3ac8"/></radialGradient><radialGradient id="b" cx="0" cy="0" r="1" gradientTransform="rotate(-65.136 39.69 9.186)scale(30.1257)" gradientUnits="userSpaceOnUse"><stop stop-color="#e0e8b7"/><stop offset=".445" stop-color="#fb8a2e"/><stop offset=".715" stop-color="#e2425c"/><stop offset="1" stop-color="#e2425c" stop-opacity="0"/></radialGradient><radialGradient id="c" cx="0" cy="0" r="1" gradientTransform="rotate(-8.13 28.485 -2.69)scale(51.8545 11.0911)" gradientUnits="userSpaceOnUse"><stop offset=".157" stop-color="#406adc"/><stop offset=".468" stop-color="#6a45be"/><stop offset="1" stop-color="#6a45be" stop-opacity="0"/></radialGradient></defs></svg>
